wander_world_ui/src/assets/wanderworld_logo.svg

<svg width="387" height="324" viewBox="0 0 387 324" fill="none" xmlns="http://www.w3.org/2000/svg">
<mask id="mask0_122_136" style="mask-type:luminance" maskUnits="userSpaceOnUse" x="26" y="0" width="325" height="324">
<path d="M26.0698 0H350.07V324H26.0698V0Z" fill="white"/>
</mask>
<g mask="url(#mask0_122_136)">
<path d="M309.799 254.469C300.575 249.515 290.08 245.219 278.669 241.604L277.591 250.38C287.294 253.531 296.247 257.213 304.242 261.385C282.789 286.552 253.362 304.698 219.919 311.87C225.747 307.234 231.284 301.312 236.44 294.177C235.205 292.526 234.304 290.604 233.851 288.505L232.867 283.922C221.018 302.417 206.955 313.219 192.2 314.995V280.021C190.862 282.265 188.981 284.193 186.638 285.552L184.481 286.802C184.164 286.989 183.825 287.135 183.492 287.292V314.995C165.679 312.849 148.872 297.604 135.768 271.5C131.466 262.937 127.747 253.515 124.622 243.458C130.591 242.245 136.747 241.219 143.028 240.354C143.257 239.208 143.58 238.073 144.023 236.984L139.862 232.005C133.836 232.875 127.919 233.885 122.169 235.073C116.544 214.135 113.435 190.734 113.101 166.359H167.429L158.575 158.385C158.315 158.151 158.086 157.89 157.841 157.635H113.101C113.435 133.401 116.513 110.125 122.08 89.2759C141.205 93.229 162.023 95.4582 183.492 95.7238V127.646C185.528 127.937 187.523 128.458 189.44 129.265L192.2 130.427V95.7238C213.669 95.4582 234.487 93.2238 253.606 89.2707C258.924 109.172 261.94 131.292 262.497 154.344L270.669 149.599C270.799 149.521 270.94 149.458 271.07 149.385C270.216 127.5 267.174 106.484 262.101 87.3696C280.132 83.0363 296.419 77.104 309.992 69.7811C328.554 94.3748 339.888 124.724 340.81 157.635H321.481C322.044 160.505 321.888 163.489 321.044 166.359H340.81C339.882 199.385 328.471 229.828 309.799 254.469ZM71.4502 261.385C84.1846 254.739 99.3408 249.333 116.086 245.344C119.403 256.135 123.372 266.234 127.981 275.417C135.987 291.354 145.419 303.635 155.773 311.87C122.325 304.698 92.9033 286.547 71.4502 261.385ZM34.8825 166.359H104.393C104.726 191.338 107.914 215.375 113.674 236.969C95.695 241.286 79.4502 247.187 65.8877 254.469C47.221 229.828 35.8044 199.385 34.8825 166.359ZM65.6846 69.7967C79.2679 77.1144 95.5492 83.0467 113.586 87.38C107.882 108.885 104.726 132.792 104.393 157.635H34.8825C35.8044 124.729 47.1325 94.3853 65.6846 69.7967ZM183.492 9.00505V86.9998C162.841 86.7394 142.856 84.63 124.507 80.8853C127.659 70.6978 131.414 61.1613 135.768 52.4998C148.872 26.3905 165.679 11.1457 183.492 9.00505ZM155.773 12.13C145.419 20.3592 135.987 32.6457 127.981 48.578C123.325 57.8592 119.31 68.078 115.976 78.9998C99.1742 74.9894 83.9762 69.5571 71.2262 62.88C92.7002 37.5728 122.211 19.328 155.773 12.13ZM192.2 9.00505C210.007 11.1457 226.815 26.3905 239.924 52.4998C244.273 61.1613 248.028 70.6925 251.179 80.88C232.836 84.6248 212.846 86.7394 192.2 86.9998V9.00505ZM304.45 62.8644C291.705 69.5467 276.507 74.979 259.711 78.9894C256.377 68.0728 252.367 57.8592 247.705 48.578C239.7 32.6457 230.268 20.3592 219.919 12.13C253.471 19.3228 282.981 37.5675 304.45 62.8644ZM187.846 0.0102539C98.6585 0.0102539 26.1064 72.6769 26.1064 161.995C26.1064 251.318 98.6585 323.989 187.846 323.989C277.028 323.989 349.586 251.318 349.586 161.995C349.586 72.6769 277.028 0.0102539 187.846 0.0102539Z" fill="#689DDF"/>
</g>
<path d="M184.58 202.026C185.283 201.505 185.976 200.99 186.669 200.485C186.669 200.485 188.966 198.818 189.523 198.417L192.2 195.735V188.677L183.492 180.833V202.849L184.58 202.026Z" fill="#689DDF"/>
<path d="M142.882 246.578C118.804 256.948 96.0491 265.255 75.8407 270.958C32.8407 283.083 13.4501 279.896 9.64281 272.864C6.01781 266.167 13.1376 249.109 43.9918 221.312L38.1636 214.823C7.0126 242.896 -5.16448 263.823 1.98656 277.026C6.02823 284.484 15.6689 287.802 29.3043 287.802C56.5855 287.802 99.8564 274.51 146.174 254.583C144.924 252.854 143.945 250.89 143.346 248.75C143.143 248.031 142.992 247.307 142.882 246.578Z" fill="url(#paint0_linear_122_136)"/>
<path d="M384.742 69.0886C377.643 55.974 353.736 54.7136 313.695 65.349L315.929 73.7761C355.539 63.2605 373.492 66.6094 377.091 73.25C380.893 80.2813 372.992 98.2969 339.388 127.787C332.132 134.151 324.096 140.677 315.445 147.276C315.585 147.401 315.726 147.526 315.861 147.651C316.19 147.953 316.46 148.214 316.71 148.479C316.867 148.635 317.013 148.797 317.158 148.958C317.486 149.328 317.825 149.74 318.143 150.167L318.424 150.552C318.763 151.026 319.08 151.521 319.377 152.026C319.804 152.776 320.174 153.552 320.492 154.349C365.554 120.115 394.617 87.3178 384.742 69.0886Z" fill="url(#paint1_linear_122_136)"/>
<path d="M231.075 220.333L245.2 286.052C245.643 288.083 247.929 289.099 249.731 288.057L256.83 283.937C260.179 281.995 262.424 278.588 262.898 274.745L272.528 196.349L291.387 185.406C291.861 185.13 292.325 184.844 292.783 184.557C292.887 184.489 292.986 184.422 293.091 184.359C293.533 184.073 293.976 183.776 294.408 183.474C294.486 183.422 294.559 183.364 294.637 183.312C295.023 183.042 295.398 182.76 295.773 182.474C295.856 182.406 295.95 182.344 296.033 182.276C296.439 181.958 296.841 181.635 297.236 181.307C297.341 181.219 297.45 181.13 297.549 181.042C297.908 180.739 298.257 180.432 298.601 180.114C298.658 180.068 298.716 180.015 298.773 179.963C299.143 179.625 299.507 179.271 299.867 178.917C299.981 178.802 300.091 178.693 300.205 178.578C300.554 178.229 300.893 177.87 301.226 177.505C301.32 177.406 301.408 177.307 301.497 177.208C301.768 176.911 302.033 176.609 302.294 176.302C302.398 176.177 302.507 176.052 302.611 175.927C302.919 175.557 303.216 175.187 303.512 174.807C303.617 174.672 303.721 174.531 303.83 174.39C304.064 174.078 304.299 173.765 304.523 173.443C304.606 173.328 304.689 173.219 304.773 173.099C305.059 172.693 305.335 172.276 305.606 171.854C305.726 171.677 305.835 171.495 305.95 171.312C306.132 171.026 306.304 170.739 306.476 170.448C306.585 170.26 306.695 170.078 306.804 169.896C307.012 169.526 307.221 169.151 307.419 168.776C307.476 168.677 307.528 168.578 307.58 168.479C307.825 168.015 308.059 167.536 308.288 167.057C308.361 166.901 308.434 166.745 308.507 166.588C308.674 166.229 308.835 165.864 308.992 165.5C309.054 165.344 309.122 165.187 309.189 165.036C309.398 164.526 309.601 164.015 309.788 163.5C310.518 161.531 310.257 159.469 309.299 157.818C309.195 157.635 309.08 157.458 308.955 157.286C308.924 157.245 308.893 157.203 308.861 157.156C308.742 156.995 308.617 156.838 308.481 156.687C308.445 156.651 308.413 156.614 308.377 156.578C308.268 156.463 308.158 156.354 308.044 156.25C307.986 156.198 307.934 156.146 307.877 156.099C307.742 155.979 307.596 155.864 307.45 155.76C307.377 155.708 307.304 155.656 307.231 155.609C307.127 155.542 307.023 155.474 306.919 155.411C306.846 155.37 306.768 155.318 306.689 155.276C306.523 155.187 306.346 155.104 306.174 155.026C306.085 154.989 306.002 154.958 305.913 154.927C305.783 154.875 305.648 154.828 305.512 154.786C305.439 154.76 305.361 154.734 305.283 154.713C305.064 154.656 304.846 154.604 304.622 154.562C294.939 152.927 284.992 154.729 276.492 159.661L274.341 160.911L264.221 166.781L257.637 170.604L184.939 139.984C181.372 138.484 177.304 138.745 173.955 140.687L166.856 144.807C165.059 145.849 164.799 148.344 166.346 149.739L216.242 194.698C214.007 196.052 211.794 197.443 209.596 198.854C209.591 198.854 209.591 198.854 209.585 198.859C208.195 199.75 206.814 200.646 205.445 201.557C205.403 201.583 205.367 201.609 205.325 201.635C203.981 202.526 202.648 203.432 201.32 204.344C201.257 204.385 201.195 204.422 201.137 204.469C199.768 205.406 198.408 206.359 197.054 207.323C196.257 207.89 195.466 208.458 194.674 209.036C194.288 209.312 193.908 209.588 193.528 209.87C192.856 210.364 192.184 210.854 191.518 211.354C190.929 211.792 190.341 212.234 189.752 212.677C189.247 213.057 188.747 213.437 188.242 213.823C187.117 214.687 185.992 215.552 184.877 216.432L172.413 226.25L147.544 210.984C146.299 210.224 144.736 210.203 143.471 210.937L141.32 212.182C140.403 212.719 140.122 213.88 140.632 214.765C140.684 214.859 140.747 214.948 140.82 215.031L159.018 236.802L157.127 238.286C154.934 240.015 153.762 242.901 154.518 245.594C155.669 249.672 159.966 251.62 163.637 250.135L166.143 249.12L175.95 275.755C175.986 275.859 176.033 275.958 176.085 276.052C176.601 276.937 177.747 277.271 178.663 276.734L180.814 275.489C182.08 274.755 182.841 273.385 182.799 271.922L181.945 242.724L196.648 236.776C208.45 232 219.945 226.51 231.075 220.333Z" fill="white"/>
<defs>
<linearGradient id="paint0_linear_122_136" x1="73.087" y1="214.823" x2="73.087" y2="287.802" gradientUnits="userSpaceOnUse">
<stop stop-color="#F79256"/>
<stop offset="1" stop-color="#FBD1A2"/>
</linearGradient>
<linearGradient id="paint1_linear_122_136" x1="350.182" y1="58.2139" x2="350.182" y2="154.349" gradientUnits="userSpaceOnUse">
<stop stop-color="#F79256"/>
<stop offset="1" stop-color="#FBD1A2"/>
</linearGradient>
</defs>
</svg>

<svg xmlns="http://www.w3.org/2000/svg" width="387" height="324" fill="none" viewBox="0 0 387 324">
  <mask id="a" width="325" height="324" x="26" y="0" maskUnits="userSpaceOnUse" style="mask-type:luminance">
    <path fill="#fff" d="M26.07 0h324v324h-324V0Z"/>
  </mask>
  <g mask="url(#a)">
    <path fill="#7BA1E0" d="M309.799 254.469c-9.224-4.953-19.719-9.25-31.13-12.865l-1.078 8.776c9.703 3.151 18.656 6.834 26.651 11.005-21.453 25.167-50.88 43.313-84.323 50.485 5.828-4.636 11.365-10.557 16.521-17.693a14.606 14.606 0 0 1-2.589-5.672l-.984-4.583c-11.849 18.495-25.912 29.297-40.667 31.073v-34.974c-1.338 2.245-3.219 4.172-5.562 5.531l-2.157 1.25c-.317.188-.656.333-.989.49v27.703c-17.813-2.146-34.62-17.391-47.724-43.495-4.302-8.562-8.021-17.984-11.146-28.042 5.969-1.213 12.125-2.239 18.406-3.104.229-1.146.552-2.281.995-3.37l-4.161-4.979c-6.026.87-11.943 1.88-17.693 3.068-5.625-20.938-8.734-44.339-9.068-68.714h54.328l-8.854-7.974c-.26-.234-.489-.494-.734-.75h-44.74c.334-24.234 3.412-47.51 8.979-68.359 19.125 3.953 39.943 6.182 61.412 6.448v31.922c2.036.292 4.031.812 5.948 1.62l2.76 1.161V95.724c21.469-.266 42.287-2.5 61.406-6.453 5.318 19.901 8.334 42.021 8.891 65.073l8.172-4.745c.13-.078.271-.141.401-.214-.854-21.885-3.896-42.901-8.969-62.015 18.031-4.334 34.318-10.266 47.891-17.589 18.562 24.594 29.896 54.943 30.818 87.854h-19.329c.563 2.87.407 5.855-.437 8.724h19.766c-.928 33.026-12.339 63.469-31.011 88.11ZM71.45 261.385c12.734-6.645 27.89-12.052 44.636-16.041 3.317 10.791 7.286 20.89 11.895 30.073 8.006 15.937 17.438 28.218 27.792 36.453-33.448-7.172-62.87-25.323-84.323-50.485Zm-36.568-95.026h69.511c.333 24.98 3.521 49.016 9.281 70.61-17.979 4.317-34.224 10.219-47.786 17.5-18.667-24.641-30.084-55.084-31.006-88.11Zm30.803-96.562c13.583 7.318 29.864 13.25 47.901 17.583-5.704 21.505-8.86 45.412-9.193 70.255h-69.51c.921-32.906 12.25-63.25 30.801-87.838ZM183.492 9.005V87c-20.651-.26-40.636-2.37-58.985-6.115 3.152-10.187 6.907-19.724 11.261-28.385 13.104-26.11 29.911-41.354 47.724-43.495Zm-27.719 3.125c-10.354 8.23-19.786 20.516-27.792 36.448-4.656 9.281-8.671 19.5-12.005 30.422-16.802-4.01-32-9.443-44.75-16.12 21.474-25.307 50.985-43.552 84.547-50.75ZM192.2 9.005c17.807 2.14 34.615 17.386 47.724 43.495 4.349 8.661 8.104 18.193 11.255 28.38-18.343 3.745-38.333 5.86-58.979 6.12V9.005Zm112.25 53.86c-12.745 6.682-27.943 12.114-44.739 16.125-3.334-10.917-7.344-21.13-12.006-30.412-8.005-15.932-17.437-28.219-27.786-36.448 33.552 7.193 63.062 25.438 84.531 50.735ZM187.846.01c-89.188 0-161.74 72.667-161.74 161.985 0 89.323 72.553 161.995 161.74 161.995 89.182 0 161.74-72.672 161.74-161.995C349.586 72.677 277.028.01 187.846.01Z"/>
  </g>
  <path fill="#7BA1E0" d="M184.58 202.026c.703-.521 1.396-1.036 2.089-1.542 0 0 2.297-1.666 2.854-2.067l2.677-2.683v-7.057l-8.708-7.844v22.016l1.088-.823Z"/>
  <path fill="#E28D9F" d="M142.882 246.578c-24.078 10.37-46.833 18.677-67.041 24.38-43 12.125-62.39 8.938-66.198 1.907-3.625-6.698 3.495-23.756 34.349-51.552l-5.828-6.49c-31.151 28.073-43.328 49-36.177 62.203 4.041 7.458 13.682 10.776 27.317 10.776 27.282 0 70.552-13.292 116.87-33.219a18.44 18.44 0 0 1-2.828-5.833 17.69 17.69 0 0 1-.464-2.172Zm241.86-177.489c-7.099-13.115-31.006-14.375-71.047-3.74l2.234 8.427c39.61-10.515 57.563-7.167 61.162-.526 3.802 7.031-4.099 25.047-37.703 54.537-7.256 6.364-15.292 12.89-23.943 19.489.14.125.281.25.416.375.329.302.599.563.849.828.157.156.303.318.448.479.328.37.667.782.985 1.209l.281.385c.339.474.656.969.953 1.474.427.75.797 1.526 1.115 2.323 45.062-34.234 74.125-67.031 64.25-85.26Z"/>
  <path fill="#fff" d="m231.075 220.333 14.125 65.719c.443 2.031 2.729 3.047 4.531 2.005l7.099-4.119a12.38 12.38 0 0 0 6.068-9.193l9.63-78.396 18.86-10.943c.474-.276.937-.562 1.395-.849.105-.067.204-.135.308-.198.442-.286.885-.583 1.317-.885.079-.052.152-.109.23-.161.385-.271.76-.552 1.135-.839.083-.068.177-.13.26-.198.407-.318.808-.64 1.204-.969.104-.088.213-.177.312-.265.359-.302.708-.61 1.052-.927.057-.047.115-.099.172-.151.37-.339.734-.693 1.094-1.047l.338-.339c.349-.349.688-.708 1.021-1.073.094-.099.182-.198.271-.297.271-.296.536-.599.797-.906.104-.125.213-.25.318-.375.307-.37.604-.739.901-1.12.104-.135.208-.276.317-.416.235-.313.469-.625.693-.948.083-.115.167-.224.25-.344.287-.406.563-.823.833-1.245.12-.177.23-.359.344-.541.182-.287.354-.573.526-.865l.328-.552c.209-.37.417-.745.615-1.12.057-.099.109-.198.161-.297a38.425 38.425 0 0 0 .927-1.89c.167-.36.329-.724.485-1.089.062-.156.13-.312.198-.463.208-.511.411-1.021.599-1.537a6.665 6.665 0 0 0-.834-6.213 6.488 6.488 0 0 0-.474-.599c-.036-.037-.067-.073-.104-.11a6.85 6.85 0 0 0-.333-.328c-.057-.052-.109-.104-.167-.151a5.107 5.107 0 0 0-.427-.338 4.806 4.806 0 0 0-.219-.152c-.104-.067-.208-.135-.312-.197-.073-.042-.151-.094-.229-.136a9.804 9.804 0 0 0-.516-.25 5.522 5.522 0 0 0-.26-.099 5.14 5.14 0 0 0-.401-.14 2.577 2.577 0 0 0-.23-.073 8.56 8.56 0 0 0-.661-.151 42.068 42.068 0 0 0-28.13 5.099l-2.151 1.25-10.12 5.869-6.583 3.823-72.698-30.62a12.354 12.354 0 0 0-10.985.704l-7.099 4.119c-1.796 1.042-2.057 3.537-.51 4.933l49.896 44.958a301.436 301.436 0 0 0-6.646 4.156c-.005 0-.005 0-.01.005a288.528 288.528 0 0 0-4.141 2.698c-.042.026-.078.052-.12.079a286.58 286.58 0 0 0-4.005 2.708c-.063.042-.125.078-.182.125a264.406 264.406 0 0 0-6.464 4.568c-.385.276-.766.552-1.146.833-.672.495-1.343.984-2.01 1.484a405.592 405.592 0 0 0-3.276 2.469c-1.125.865-2.25 1.729-3.365 2.609l-12.463 9.818-24.87-15.266a3.98 3.98 0 0 0-4.073-.046l-2.151 1.244a1.898 1.898 0 0 0-.688 2.584c.053.093.115.182.188.265l18.198 21.771-1.891 1.485c-2.192 1.729-3.364 4.614-2.609 7.307 1.151 4.078 5.448 6.026 9.12 4.542l2.505-1.016 9.807 26.635a1.88 1.88 0 0 0 2.714.979l2.151-1.244a3.993 3.993 0 0 0 1.984-3.568l-.854-29.198 14.703-5.948a312.37 312.37 0 0 0 34.427-16.443Z"/>
</svg>
